Sources/FrostedUI/Resources/Icons.xcassets/lightsOn32.imageset/lights-on-32.svg

<svg width="32" height="32" viewBox="0 0 32 32" fill="none" xmlns="http://www.w3.org/2000/svg" data-fui-icon="true">
  <path
    d="M19.2002 30.5C19.6143 30.5001 19.9502 30.8359 19.9502 31.25C19.9502 31.6641 19.6143 31.9999 19.2002 32H12.7998C12.3857 31.9999 12.0498 31.6641 12.0498 31.25C12.0498 30.8359 12.3857 30.5001 12.7998 30.5H19.2002ZM16 6.75C18.9343 6.75002 21.2666 7.77802 22.8613 9.48828C24.4483 11.1902 25.25 13.5084 25.25 16C25.25 19.4666 23.0156 21.7374 21.6143 22.8242C21.0745 23.2429 20.75 23.8228 20.75 24.3906C20.75 26.384 19.134 28 17.1406 28H14.8594C12.866 28 11.25 26.384 11.25 24.3906C11.25 23.8228 10.9255 23.2429 10.3857 22.8242C8.98435 21.7374 6.75 19.4666 6.75 16C6.75 13.5083 7.55172 11.1902 9.13867 9.48828C10.7334 7.778 13.0657 6.75 16 6.75ZM7.21973 23.7197C7.51262 23.4268 7.98738 23.4268 8.28027 23.7197C8.57317 24.0126 8.57317 24.4874 8.28027 24.7803L6.03027 27.0303C5.73738 27.3232 5.26262 27.3232 4.96973 27.0303C4.67683 26.7374 4.67683 26.2626 4.96973 25.9697L7.21973 23.7197ZM23.7197 23.7197C24.0126 23.4268 24.4874 23.4268 24.7803 23.7197L27.0303 25.9697C27.3232 26.2626 27.3232 26.7374 27.0303 27.0303C26.7374 27.3232 26.2626 27.3232 25.9697 27.0303L23.7197 24.7803C23.4268 24.4874 23.4268 24.0126 23.7197 23.7197ZM16 8.25C13.4344 8.25 11.5166 9.13868 10.2363 10.5117C8.9483 11.8931 8.25 13.825 8.25 16C8.25 18.7739 10.0395 20.6575 11.3047 21.6387C12.115 22.2671 12.75 23.2499 12.75 24.3906C12.75 25.5556 13.6944 26.5 14.8594 26.5H17.1406C18.3056 26.5 19.25 25.5556 19.25 24.3906C19.25 23.2499 19.885 22.2671 20.6953 21.6387C21.9605 20.6575 23.75 18.7739 23.75 16C23.75 13.825 23.0517 11.8931 21.7637 10.5117C20.4834 9.13868 18.5656 8.25002 16 8.25ZM4 15.25C4.41421 15.25 4.75 15.5858 4.75 16C4.74996 16.4142 4.41419 16.75 4 16.75H1C0.585813 16.75 0.250044 16.4142 0.25 16C0.25 15.5858 0.585786 15.25 1 15.25H4ZM31 15.25C31.4142 15.25 31.75 15.5858 31.75 16C31.75 16.4142 31.4142 16.75 31 16.75H28C27.5858 16.75 27.25 16.4142 27.25 16C27.25 15.5858 27.5858 15.25 28 15.25H31ZM4.46973 4.46973C4.76262 4.17683 5.23738 4.17683 5.53027 4.46973L7.78027 6.71973C8.07317 7.01262 8.07317 7.48738 7.78027 7.78027C7.48738 8.07317 7.01262 8.07317 6.71973 7.78027L4.46973 5.53027C4.17683 5.23738 4.17683 4.76262 4.46973 4.46973ZM26.4697 4.46973C26.7626 4.17683 27.2374 4.17683 27.5303 4.46973C27.8232 4.76262 27.8232 5.23738 27.5303 5.53027L25.2803 7.78027C24.9874 8.07317 24.5126 8.07317 24.2197 7.78027C23.9268 7.48738 23.9268 7.01262 24.2197 6.71973L26.4697 4.46973ZM16 0.25C16.4142 0.25 16.75 0.585786 16.75 1V4C16.75 4.41421 16.4142 4.75 16 4.75C15.5858 4.75 15.25 4.41421 15.25 4V1C15.25 0.585786 15.5858 0.25 16 0.25Z"
    fill="currentColor"
  />
</svg>

<svg xmlns="http://www.w3.org/2000/svg" width="32" height="32" fill="none" data-fui-icon="true" viewBox="0 0 32 32"><path fill="currentColor" d="M19.2 30.5a.75.75 0 0 1 0 1.5h-6.4a.75.75 0 0 1 0-1.5zM16 6.75c2.934 0 5.267 1.028 6.861 2.738 1.587 1.702 2.389 4.02 2.389 6.512 0 3.467-2.234 5.737-3.636 6.824-.54.419-.864.999-.864 1.567A3.61 3.61 0 0 1 17.14 28h-2.28a3.61 3.61 0 0 1-3.61-3.61c0-.567-.325-1.147-.864-1.566C8.984 21.737 6.75 19.467 6.75 16c0-2.492.802-4.81 2.389-6.512C10.733 7.778 13.066 6.75 16 6.75M7.22 23.72a.75.75 0 1 1 1.06 1.06l-2.25 2.25a.75.75 0 1 1-1.06-1.06zm16.5 0a.75.75 0 0 1 1.06 0l2.25 2.25a.75.75 0 1 1-1.06 1.06l-2.25-2.25a.75.75 0 0 1 0-1.06M16 8.25c-2.566 0-4.483.889-5.764 2.262C8.948 11.893 8.25 13.825 8.25 16c0 2.774 1.79 4.657 3.055 5.639.81.628 1.445 1.61 1.445 2.752a2.11 2.11 0 0 0 2.11 2.109h2.28a2.11 2.11 0 0 0 2.11-2.11c0-1.14.635-2.123 1.445-2.751 1.265-.982 3.055-2.865 3.055-5.639 0-2.175-.698-4.107-1.986-5.488C20.484 9.139 18.566 8.25 16 8.25m-12 7a.75.75 0 0 1 0 1.5H1a.75.75 0 0 1 0-1.5zm27 0a.75.75 0 0 1 0 1.5h-3a.75.75 0 0 1 0-1.5zM4.47 4.47a.75.75 0 0 1 1.06 0l2.25 2.25a.75.75 0 1 1-1.06 1.06L4.47 5.53a.75.75 0 0 1 0-1.06m22 0a.75.75 0 1 1 1.06 1.06l-2.25 2.25a.75.75 0 1 1-1.06-1.06zM16 .25a.75.75 0 0 1 .75.75v3a.75.75 0 0 1-1.5 0V1A.75.75 0 0 1 16 .25"/></svg>
